images/reinvent.svg

<svg fill="none" height="18" viewBox="0 0 100 18" width="100" xmlns="http://www.w3.org/2000/svg"><path clip-rule="evenodd" d="m12.9102 5.25909c0 1.22294-.3106 2.26241-.9311 3.11844s-1.5271 1.3983-2.7206 1.62687l4.1493 7.314h-4.1734l-3.93595-6.9236h-1.57585v6.9236h-3.7226v-10.41284h5.91796c.33456 0 .68786-.01286 1.06175-.03712.37331-.02384 1.32894-.18086 1.68817-.66939l.02089-.02835c.17331-.23487.35524-.48141.35524-.93617 0-.44043-.19448-.87293-.42152-1.08816-.47931-.45386-.97538-.51458-1.32505-.55737h-.00001c-.04029-.00494-.07864-.00964-.11479-.01466-.3502-.04984-.69181-.07382-1.02609-.07382h-6.15655v-3.50052h6.53846c.85895 0 1.67365.0860939 2.44607.256837.77144.171321 1.44737.457048 2.02827.856023.5803.39942 1.0418.93808 1.3842 1.61383.3417.67705.5132 1.52137.5132 2.5324zm19.7713-5.25909c-.5391 0-1.0001.190956-1.3823.57368-.3822.382182-.5729.84275-.5729 1.38223 0 .53895.1907.99951.5729 1.38197.3822.38273.8432.57273 1.3823.57273.5395 0 .9999-.19 1.3823-.57273.3822-.38246.5731-.84302.5731-1.38197 0-.53948-.1909-1.000048-.5731-1.38223-.3824-.382724-.8428-.57368-1.3823-.57368zm4.7486 5.58659h5.682c2.72 0 4.9326 2.22806 4.9326 4.96711v6.7647h-3.2692v-6.7647c0-.83875-.8309-1.67547-1.6634-1.67547h-2.4899v8.44017h-3.1921zm40.2235 0h5.6818c2.7199 0 4.9328 2.22806 4.9328 4.96711v6.7647h-3.2691v-6.7647c0-.83875-.831-1.67547-1.6637-1.67547h-2.4896v8.44017h-3.1922zm-43.5754 11.73181h-3.3519v-11.73181h3.3519zm22.138-4.8484-2.8105-6.88341h-3.641l-.044.01866 4.7828 11.71315h3.4902l4.5761-11.73181h-3.669zm-36.8794-2.1879v3.4587h6.5415l2.0547 3.5776h-12.2906v-10.6142-.00029l10.2359.00029v3.5779zm-3.6944-6.93015h10.2359l2.0547-3.35195h-12.2906zm51.4765 6.88065c.1372-.98715 1.1692-1.9347 2.2379-1.9347.5169 0 1.1761.22246 1.5469.61052.3306.34641.5241.87192.5408 1.32418zm2.2569-4.64601c-2.2302 0-3.9348 1.02615-4.9086 2.81548-.9983 1.83283-1.0419 4.14253-.1108 5.88413.7786 1.4568 2.0891 2.5072 3.8267 2.8823.4658.1008.9364.1499 1.4025.1499 1.3879 0 2.7345-.4353 3.7769-1.2498l.0792-.0621-1.4227-2.4147s-.7131.4668-1.2575.7312c-.4549.2206-1.1136.3112-1.5734.2605-1.0139-.1121-1.7888-.7936-2.0511-1.7929h7.7233v-.1138c0-1.4696 0-2.99001-.6914-4.37338-.8764-1.7518-2.5784-2.71683-4.7931-2.71683zm27.8579 8.36851c.4652-.242 1.2055-.8121 1.2055-.8121l1.5608 2.6287-.9635.7026c-.7875.5592-1.7124.8441-2.643.8441-.6999 0-1.4029-.1609-2.0541-.4869-1.5177-.7601-2.46-2.2702-2.46-3.942v-4.02783h-1.9352v-3.22455h1.9352v-3.40248h3.4405v3.40248h4.0632l-.1113 3.22455h-3.9519v4.20253c0 .5808.4442.8515.6199.9397.1751.088.6738.2735 1.2939-.0488z" fill="#fff" fill-rule="evenodd"/></svg>

<svg width="100" height="18" viewBox="0 0 100 18" fill="none" xmlns="http://www.w3.org/2000/svg">
<path fill-rule="evenodd" clip-rule="evenodd" d="M12.9102 5.25909C12.9102 6.48203 12.5996 7.5215 11.9791 8.37753C11.3586 9.23356 10.452 9.77583 9.2585 10.0044L13.4078 17.3184H9.2344L5.29845 10.3948H3.7226V17.3184H0V6.90556H5.91796C6.25252 6.90556 6.60582 6.8927 6.97971 6.86844C7.35302 6.8446 8.30865 6.68758 8.66788 6.19905L8.68877 6.1707C8.86208 5.93583 9.04401 5.68929 9.04401 5.23453C9.04401 4.7941 8.84953 4.3616 8.62249 4.14637C8.14318 3.69251 7.64711 3.63179 7.29744 3.589H7.29743C7.25714 3.58406 7.21879 3.57936 7.18264 3.57434C6.83244 3.5245 6.49083 3.50052 6.15655 3.50052H0V0H6.53846C7.39741 0 8.21211 0.0860939 8.98453 0.256837C9.75597 0.428158 10.4319 0.713885 11.0128 1.11286C11.5931 1.51228 12.0546 2.05094 12.397 2.72669C12.7387 3.40374 12.9102 4.24806 12.9102 5.25909ZM32.6815 0C32.1424 0 31.6814 0.190956 31.2992 0.57368C30.917 0.955862 30.7263 1.41643 30.7263 1.95591C30.7263 2.49486 30.917 2.95542 31.2992 3.33788C31.6814 3.72061 32.1424 3.91061 32.6815 3.91061C33.221 3.91061 33.6814 3.72061 34.0638 3.33788C34.446 2.95542 34.6369 2.49486 34.6369 1.95591C34.6369 1.41643 34.446 0.955862 34.0638 0.57368C33.6814 0.190956 33.221 0 32.6815 0ZM37.4301 5.58659H43.1121C45.8321 5.58659 48.0447 7.81465 48.0447 10.5537V17.3184H44.7755V10.5537C44.7755 9.71495 43.9446 8.87823 43.1121 8.87823H40.6222V17.3184H37.4301V5.58659ZM77.6536 5.58659H83.3354C86.0553 5.58659 88.2682 7.81465 88.2682 10.5537V17.3184H84.9991V10.5537C84.9991 9.71495 84.1681 8.87823 83.3354 8.87823H80.8458V17.3184H77.6536V5.58659ZM34.0782 17.3184H30.7263V5.58659H34.0782V17.3184ZM56.2162 12.47L53.4057 5.58659H49.7647L49.7207 5.60525L54.5035 17.3184H57.9937L62.5698 5.58659H58.9008L56.2162 12.47ZM19.3368 10.2821V13.7408H25.8783L27.933 17.3184H15.6424V6.7042V6.70391L25.8783 6.7042V10.2821H19.3368ZM15.6424 3.35195H25.8783L27.933 0H15.6424V3.35195ZM67.1189 10.2326C67.2561 9.24545 68.2881 8.2979 69.3568 8.2979C69.8737 8.2979 70.5329 8.52036 70.9037 8.90842C71.2343 9.25483 71.4278 9.78034 71.4445 10.2326H67.1189ZM69.3758 5.58659C67.1456 5.58659 65.441 6.61274 64.4672 8.40207C63.4689 10.2349 63.4253 12.5446 64.3564 14.2862C65.135 15.743 66.4455 16.7934 68.1831 17.1685C68.6489 17.2693 69.1195 17.3184 69.5856 17.3184C70.9735 17.3184 72.3201 16.8831 73.3625 16.0686L73.4417 16.0065L72.019 13.5918C72.019 13.5918 71.3059 14.0586 70.7615 14.323C70.3066 14.5436 69.6479 14.6342 69.1881 14.5835C68.1742 14.4714 67.3993 13.7899 67.137 12.7906H74.8603V12.6768C74.8603 11.2072 74.8603 9.68679 74.1689 8.30342C73.2925 6.55162 71.5905 5.58659 69.3758 5.58659ZM97.2337 13.9551C97.6989 13.7131 98.4392 13.143 98.4392 13.143L100 15.7717L99.0365 16.4743C98.249 17.0335 97.3241 17.3184 96.3935 17.3184C95.6936 17.3184 94.9906 17.1575 94.3394 16.8315C92.8217 16.0714 91.8794 14.5613 91.8794 12.8895V8.86167H89.9442V5.63712H91.8794V2.23464H95.3199V5.63712H99.3831L99.2718 8.86167H95.3199V13.0642C95.3199 13.645 95.7641 13.9157 95.9398 14.0039C96.1149 14.0919 96.6136 14.2774 97.2337 13.9551Z" fill="white"/>
</svg>
